www/images/external.svg

<svg xmlns="http://www.w3.org/2000/svg" width="12" height="12" fill="#fff">
  <path stroke="#06c" d="M1.5 4.5h6v6h-6z"/>
  <path fill="#06c" d="m4 2.5 1 1 .25.75-2.5 2.25L5.5 9.25l2.25-2.5.75.25 1 1L11 6.5V1H5.5L4 2.5z"/>
  <path d="M6 2h4v4l-.5.75-1.25-2-3 3.25L4 6.75l3.25-3-2-1.25L6 2z"/>
</svg>

<?xml version="1.0" encoding="UTF-8" standalone="no"?>
<!-- Created with Inkscape (http://www.inkscape.org/) -->
<svg
   xmlns:svg="http://www.w3.org/2000/svg"
   xmlns="http://www.w3.org/2000/svg"
   version="1.0"
   width="12"
   height="12"
   id="svg2">
  <defs
     id="defs4" />
  <rect
     width="5.9999995"
     height="6"
     x="1.5"
     y="4.5"
     id="rect3170"
     style="fill:#ffffff;fill-opacity:1;fill-rule:nonzero;stroke:#0066cc;stroke-width:0.99999994;stroke-linecap:butt;stroke-linejoin:miter;stroke-miterlimit:4;stroke-dasharray:none;stroke-dashoffset:0;stroke-opacity:1" />
  <path
     d="M 4,2.5 L 5,3.5 L 5.25,4.25 L 2.75,6.5 L 5.5,9.25 L 7.75,6.75 L 8.5,7 L 9.5,8 L 11,6.5 L 11,1 L 5.5,1 L 4,2.5 z"
     id="path2395"
     style="fill:#0066ff;fill-opacity:1;fill-rule:evenodd;stroke:none;stroke-width:1px;stroke-linecap:butt;stroke-linejoin:miter;stroke-opacity:1" />
  <path
     d="M 6,2 L 10,2 L 10,6 L 9.5,6.75 L 8.25,4.75 L 5.25,8 L 4,6.75 L 7.25,3.75 L 5.25,2.5 L 6,2 z"
     id="path2398"
     style="fill:#ffffff;fill-opacity:1;fill-rule:evenodd;stroke:none;stroke-width:1px;stroke-linecap:butt;stroke-linejoin:miter;stroke-opacity:1" />
</svg>
